src/assets/images/logo-malengo.svg

<svg height="250" viewBox="0 0 1001 250" width="1001" xmlns="http://www.w3.org/2000/svg"><g fill="none" fill-rule="evenodd"><g fill="#1a1919"><path d="m397.328.545c-13.667 0-27.334 0-41 0-.887 1.325-.839 2.821-.838 4.327.007 58.642.042 117.285-.078 175.928-.008 3.795 1.481 4.349 4.694 4.305 10.661-.145 21.33-.266 31.983.046 4.501.132 5.866-1.068 5.852-5.742-.165-57.809-.103-115.619-.128-173.429-.001-1.812-.316-3.623-.485-5.435"/><path d="m916.709 138.967c-4.233 11.36-13.257 17.038-26.143 16.977-12.192-.056-22.123-4.221-27.51-16.069-3.239-7.125-3.939-14.714-4.117-24.507.257-9.898 1.711-21.5 11.116-30.41 14.655-13.886 41.474-7.702 47.612 11.401 4.544 14.144 4.263 28.6-.958 42.608zm42.711-50.43c-5.832-17.545-17.661-29.882-34.661-37.153-10.9-4.662-22.378-6.271-34.505-5.99-5.337-.16-10.988.165-16.577 1.181-27.578 5.014-46.843 19.699-54.853 47.364-3.105 10.724-3.149 21.736-2.438 32.724 1.757 27.16 18.203 48.798 43.363 57.356 11.028 3.752 22.441 4.606 34.001 4.368 30.416-.627 54.876-16.261 64.491-42.062 7.079-18.994 7.597-38.481 1.179-57.788z"/><path d="m494.832 100.447c-.41 2.541-1.955 2.246-3.569 2.251-7.15.022-14.301.01-21.452.01-7.15 0-14.301-.006-21.452.004-1.757.003-3.168.107-2.918-2.589 1.122-12.138 11.93-24.345 23.371-26.113 15.024-2.321 28.446 11.397 26.02 26.437zm39.288 6.534c-.831-19.162-6.209-36.47-21.697-49.084-19.86-16.175-54.921-17.118-77.616-2.326-20.673 13.473-29.877 33.278-31.277 57.257-.703 12.058.364 23.946 4.522 35.41 6.706 18.491 19.437 31.038 38.282 36.336 24.494 6.886 48.743 4.976 72.358-4.561 2.032-.821 3.775-1.53 3.709-4.456-.205-8.983-.075-17.971-.075-27.763-3.007 1.504-5.175 2.689-7.423 3.695-15.201 6.808-30.978 8.894-47.263 5.049-11.339-2.677-18.715-9.712-21.344-21.287-1.403-6.178-1.365-6.197 5.106-6.198 25.991-.005 51.983-.058 77.974.063 3.532.017 5.114-.683 4.874-4.648-.351-5.81.123-11.667-.13-17.487z"/><path d="m306.338 123.222c-.074 1.825-.016 3.656-.016 5.484-.012 16.342-8.69 27.411-23.112 29.491-14.858 2.143-25.52-9.298-20.761-22.357 2.496-6.849 8.179-9.975 14.788-11.182 8.809-1.608 17.742-2.532 26.604-3.863 2.174-.326 2.571.619 2.497 2.427zm39.851-17.644c.014-5.173-.279-10.307-.868-15.438-2.491-21.691-14.512-36.831-34.855-42.036-24.845-6.357-48.841-1.708-72.233 7.454-1.284.503-2.389 1.133-2.386 2.796.018 9.766.009 19.532.009 29.324 2.403.146 3.55-1.226 4.926-2.01 14.672-8.367 30.277-12.833 47.282-11.126 10.588 1.062 17.302 7.907 18.204 17.973.23 2.562-.146 3.955-3.22 4.174-4.969.352-9.916 1.144-14.845 1.924-13.273 2.1-26.861 2.519-39.541 7.763-26.545 10.978-35.623 46.857-16.842 68.482 12.318 14.182 28.731 15.496 45.872 12.063 12.07-2.418 20.8-9.967 28.469-19.843 0 4.61.21 9.233-.069 13.826-.206 3.382 1.082 4.249 4.262 4.203 10.49-.154 20.986-.193 31.474.016 3.595.072 4.417-1.219 4.4-4.6-.126-24.981-.104-49.963-.039-74.945z"/><path d="m670.247 162.277c-12.114-26.665-11.678-53.52-2.503-80.726.599-1.779 1.15-3.426.616-5.308-4.029-14.195-11.915-24.963-26.817-28.882-22.077-5.805-43.844-.002-56.777 18.744-.538.78-1.189 1.483-1.788 2.222-.384-.096-.767-.192-1.149-.288 0-5.297-.124-10.598.05-15.889.093-2.835-.896-3.695-3.716-3.662-11.663.138-23.33.182-34.992-.02-3.382-.058-3.721 1.411-3.717 4.172.06 42.658.081 85.317-.031 127.975-.009 3.51 1.03 4.565 4.5 4.504 10.828-.189 21.669-.297 32.49.041 4.473.14 5.563-1.21 5.523-5.578-.216-23.66-.083-47.323-.111-70.985-.011-8.763 1.798-16.903 7.991-23.504 6.098-6.496 13.609-8.546 22.284-6.796 8.345 1.685 12.75 7.328 15.095 14.968 1.875 6.111 2.155 12.432 2.145 18.786-.032 22.829-.027 45.658.015 68.487.004 1.937-.981 4.55 2.733 4.527 12.164-.081 24.329-.022 36.494-.046 1.115-.003 2.716.147 2.646-1.495-.301-7.103 2.013-14.657-.981-21.247"/><g transform="translate(667 44)"><path d="m101.86 75.347c0 11.101-2.709 20.031-8.124 26.789-5.418 6.761-12.511 10.138-21.283 10.138-8.863 0-15.845-3.333-20.948-10.003-5.102-6.668-7.653-15.732-7.653-27.192 0-13.338 2.686-23.677 8.057-31.018 5.371-7.339 12.756-11.011 22.155-11.011 8.235 0 14.926 3.067 20.074 9.198 5.147 6.132 7.722 13.541 7.722 22.223zm-.537-55.456h-.537c-8.327-12.891-20.86-19.336-37.598-19.336-18.711 0-33.794 6.848-45.252 20.544-11.46 13.697-17.187 32.183-17.187 55.457 0 20.769 5.146 37.329 15.441 49.682 10.294 12.354 24.215 18.532 41.761 18.532 18.886 0 33.167-7.699 42.835-23.096h.537v10.876c0 12.978-3.941 23.251-11.817 30.816-7.879 7.564-18.979 11.347-33.3 11.347-14.414 0-28.692-4.118-42.835-12.354v35.718c10.83 5.281 25.512 7.923 44.043 7.923 28.017 0 49.414-7.006 64.184-21.015 14.771-14.011 22.156-33.77 22.156-59.284v-121.789h-42.431z"/><path d="m329.292 113.078c-3.335-3.784-7.47-5.707-12.4-5.765-4.933-.059-9.555 1.814-13.873 5.621-4.265 3.759-6.742 8.123-7.432 13.088-.69 4.966.656 9.368 4.039 13.206 3.291 3.732 7.447 5.656 12.475 5.77 5.027.116 9.62-1.66 13.778-5.325 4.478-3.947 7.025-8.394 7.641-13.339.61-4.946-.797-9.364-4.228-13.256"/></g></g><path d="m216.048 184.354h-41.854v-77.597c0-19.752-7.264-29.63-21.791-29.63-6.909 0-12.536 2.969-16.875 8.902-4.341 5.936-6.51 13.332-6.51 22.19v76.135h-41.988v-78.394c0-19.221-7.131-28.833-21.392-28.833-7.175 0-12.911 2.836-17.206 8.503-4.298 5.67-6.445 13.377-6.445 23.12v75.604h-41.987v-136.06h41.987v21.259h.532c4.339-7.262 10.43-13.175 18.27-17.738 7.839-4.561 16.409-6.843 25.71-6.843 19.221 0 32.375 8.46 39.462 25.378 10.365-16.918 25.599-25.378 45.708-25.378 29.585 0 44.379 18.249 44.379 54.743z" fill="#0a0b09"/></g></svg>

<?xml version="1.0" encoding="UTF-8"?>
<svg width="1001px" height="250px" viewBox="0 0 1001 250" version="1.1" xmlns="http://www.w3.org/2000/svg" xmlns:xlink="http://www.w3.org/1999/xlink">
    <!-- Generator: Sketch 51.3 (57544) - http://www.bohemiancoding.com/sketch -->
    <title>logo-malengo-zwart</title>
    <desc>Created with Sketch.</desc>
    <defs></defs>
    <g id="logo-malengo-zwart" stroke="none" stroke-width="1" fill="none" fill-rule="evenodd">
        <path d="M397.328,0.545 C383.661,0.545 369.994,0.545 356.328,0.545 C355.441,1.87 355.489,3.366 355.49,4.872 C355.497,63.514 355.532,122.157 355.412,180.8 C355.404,184.595 356.893,185.149 360.106,185.105 C370.767,184.96 381.436,184.839 392.089,185.151 C396.59,185.283 397.955,184.083 397.941,179.409 C397.776,121.6 397.838,63.79 397.813,5.98 C397.812,4.168 397.497,2.357 397.328,0.545" id="Fill-1" fill="#1A1919"></path>
        <path d="M916.709,138.967 C912.476,150.327 903.452,156.005 890.566,155.944 C878.374,155.888 868.443,151.723 863.056,139.875 C859.817,132.75 859.117,125.161 858.939,115.368 C859.196,105.47 860.65,93.868 870.055,84.958 C884.71,71.072 911.529,77.256 917.667,96.359 C922.211,110.503 921.93,124.959 916.709,138.967 Z M959.42,88.537 C953.588,70.992 941.759,58.655 924.759,51.384 C913.859,46.722 902.381,45.113 890.254,45.394 C884.917,45.234 879.266,45.559 873.677,46.575 C846.099,51.589 826.834,66.274 818.824,93.939 C815.719,104.663 815.675,115.675 816.386,126.663 C818.143,153.823 834.589,175.461 859.749,184.019 C870.777,187.771 882.19,188.625 893.75,188.387 C924.166,187.76 948.626,172.126 958.241,146.325 C965.32,127.331 965.838,107.844 959.42,88.537 Z" id="Fill-2" fill="#1A1919"></path>
        <path d="M494.832,100.447 C494.422,102.988 492.877,102.693 491.263,102.698 C484.113,102.72 476.962,102.708 469.811,102.708 C462.661,102.708 455.51,102.702 448.359,102.712 C446.602,102.715 445.191,102.819 445.441,100.123 C446.563,87.985 457.371,75.778 468.812,74.01 C483.836,71.689 497.258,85.407 494.832,100.447 Z M534.12,106.981 C533.289,87.819 527.911,70.511 512.423,57.897 C492.563,41.722 457.502,40.779 434.807,55.571 C414.134,69.044 404.93,88.849 403.53,112.828 C402.827,124.886 403.894,136.774 408.052,148.238 C414.758,166.729 427.489,179.276 446.334,184.574 C470.828,191.46 495.077,189.55 518.692,180.013 C520.724,179.192 522.467,178.483 522.401,175.557 C522.196,166.574 522.326,157.586 522.326,147.794 C519.319,149.298 517.151,150.483 514.903,151.489 C499.702,158.297 483.925,160.383 467.64,156.538 C456.301,153.861 448.925,146.826 446.296,135.251 C444.893,129.073 444.931,129.054 451.402,129.053 C477.393,129.048 503.385,128.995 529.376,129.116 C532.908,129.133 534.49,128.433 534.25,124.468 C533.899,118.658 534.373,112.801 534.12,106.981 Z" id="Fill-3" fill="#1A1919"></path>
        <path d="M306.338,123.222 C306.264,125.047 306.322,126.878 306.322,128.706 C306.31,145.048 297.632,156.117 283.21,158.197 C268.352,160.34 257.69,148.899 262.449,135.84 C264.945,128.991 270.628,125.865 277.237,124.658 C286.046,123.05 294.979,122.126 303.841,120.795 C306.015,120.469 306.412,121.414 306.338,123.222 Z M346.189,105.578 C346.203,100.405 345.91,95.271 345.321,90.14 C342.83,68.449 330.809,53.309 310.466,48.104 C285.621,41.747 261.625,46.396 238.233,55.558 C236.949,56.061 235.844,56.691 235.847,58.354 C235.865,68.12 235.856,77.886 235.856,87.678 C238.259,87.824 239.406,86.452 240.782,85.668 C255.454,77.301 271.059,72.835 288.064,74.542 C298.652,75.604 305.366,82.449 306.268,92.515 C306.498,95.077 306.122,96.47 303.048,96.689 C298.079,97.041 293.132,97.833 288.203,98.613 C274.93,100.713 261.342,101.132 248.662,106.376 C222.117,117.354 213.039,153.233 231.82,174.858 C244.138,189.04 260.551,190.354 277.692,186.921 C289.762,184.503 298.492,176.954 306.161,167.078 C306.161,171.688 306.371,176.311 306.092,180.904 C305.886,184.286 307.174,185.153 310.354,185.107 C320.844,184.953 331.34,184.914 341.828,185.123 C345.423,185.195 346.245,183.904 346.228,180.523 C346.102,155.542 346.124,130.56 346.189,105.578 Z" id="Fill-4" fill="#1A1919"></path>
        <path d="M670.247,162.277 C658.133,135.612 658.569,108.757 667.744,81.551 C668.343,79.772 668.894,78.125 668.36,76.243 C664.331,62.048 656.445,51.28 641.543,47.361 C619.466,41.556 597.699,47.359 584.766,66.105 C584.228,66.885 583.577,67.588 582.978,68.327 C582.594,68.231 582.211,68.135 581.829,68.039 C581.829,62.742 581.705,57.441 581.879,52.15 C581.972,49.315 580.983,48.455 578.163,48.488 C566.5,48.626 554.833,48.67 543.171,48.468 C539.789,48.41 539.45,49.879 539.454,52.64 C539.514,95.298 539.535,137.957 539.423,180.615 C539.414,184.125 540.453,185.18 543.923,185.119 C554.751,184.93 565.592,184.822 576.413,185.16 C580.886,185.3 581.976,183.95 581.936,179.582 C581.72,155.922 581.853,132.259 581.825,108.597 C581.814,99.834 583.623,91.694 589.816,85.093 C595.914,78.597 603.425,76.547 612.1,78.297 C620.445,79.982 624.85,85.625 627.195,93.265 C629.07,99.376 629.35,105.697 629.34,112.051 C629.308,134.88 629.313,157.709 629.355,180.538 C629.359,182.475 628.374,185.088 632.088,185.065 C644.252,184.984 656.417,185.043 668.582,185.019 C669.697,185.016 671.298,185.166 671.228,183.524 C670.927,176.421 673.241,168.867 670.247,162.277" id="Fill-5" fill="#1A1919"></path>
        <g id="Group-9" transform="translate(667.000000, 44.000000)" fill="#1A1919">
            <path d="M101.86,75.347 C101.86,86.448 99.151,95.378 93.736,102.136 C88.318,108.897 81.225,112.274 72.453,112.274 C63.59,112.274 56.608,108.941 51.505,102.271 C46.403,95.603 43.852,86.539 43.852,75.079 C43.852,61.741 46.538,51.402 51.909,44.061 C57.28,36.722 64.665,33.05 74.064,33.05 C82.299,33.05 88.99,36.117 94.138,42.248 C99.285,48.38 101.86,55.789 101.86,64.471 L101.86,75.347 Z M101.323,19.891 L100.786,19.891 C92.459,7 79.926,0.555 63.188,0.555 C44.477,0.555 29.394,7.403 17.936,21.099 C6.476,34.796 0.749,53.282 0.749,76.556 C0.749,97.325 5.895,113.885 16.19,126.238 C26.484,138.592 40.405,144.77 57.951,144.77 C76.837,144.77 91.118,137.071 100.786,121.674 L101.323,121.674 L101.323,132.55 C101.323,145.528 97.382,155.801 89.506,163.366 C81.627,170.93 70.527,174.713 56.206,174.713 C41.792,174.713 27.514,170.595 13.371,162.359 L13.371,198.077 C24.201,203.358 38.883,206 57.414,206 C85.431,206 106.828,198.994 121.598,184.985 C136.369,170.974 143.754,151.215 143.754,125.701 L143.754,3.912 L101.323,3.912 L101.323,19.891 Z" id="Fill-6"></path>
            <path d="M329.292,113.078 C325.957,109.294 321.822,107.371 316.892,107.313 C311.959,107.254 307.337,109.127 303.019,112.934 C298.754,116.693 296.277,121.057 295.587,126.022 C294.897,130.988 296.243,135.39 299.626,139.228 C302.917,142.96 307.073,144.884 312.101,144.998 C317.128,145.114 321.721,143.338 325.879,139.673 C330.357,135.726 332.904,131.279 333.52,126.334 C334.13,121.388 332.723,116.97 329.292,113.078" id="Fill-8"></path>
        </g>
        <path d="M216.048,184.354 L174.194,184.354 L174.194,106.757 C174.194,87.005 166.93,77.127 152.403,77.127 C145.494,77.127 139.867,80.096 135.528,86.029 C131.187,91.965 129.018,99.361 129.018,108.219 L129.018,184.354 L87.03,184.354 L87.03,105.96 C87.03,86.739 79.899,77.127 65.638,77.127 C58.463,77.127 52.727,79.963 48.432,85.63 C44.134,91.3 41.987,99.007 41.987,108.75 L41.987,184.354 L0,184.354 L0,48.294 L41.987,48.294 L41.987,69.553 L42.519,69.553 C46.858,62.291 52.949,56.378 60.789,51.815 C68.628,47.254 77.198,44.972 86.499,44.972 C105.72,44.972 118.874,53.432 125.961,70.35 C136.326,53.432 151.56,44.972 171.669,44.972 C201.254,44.972 216.048,63.221 216.048,99.715 L216.048,184.354" id="Fill-10" fill="#0A0B09"></path>
    </g>
</svg>
